X:1
L:1/8
M:4/4
K:F
 F2 FG A3 F | GG GE C2 AB | c3 c B B/ A/F/ | G6 GA | c3 c B2 G2 | FF GG C2 AB | cc dd AA GG | 
 F2 F3/2 F/ F4 | GF GA B3 G | A6 AB | c2 cc BB GG | FF GG C2 AB | c3 c dd AA GG | F2 F3/2 F/ F4 |]
